;START_OF_HEADER
;HEADER_VERSION:0.1
;FLAVOR:Griffin
;GENERATOR.NAME:Cura_SteamEngine
;GENERATOR.VERSION:4.2.1
;GENERATOR.BUILD_DATE:2019-08-01
;TARGET_MACHINE.NAME:Ultimaker 3 Extended
;EXTRUDER_TRAIN.1.INITIAL_TEMPERATURE:220
;EXTRUDER_TRAIN.1.MATERIAL.VOLUME_USED:6190
;EXTRUDER_TRAIN.1.MATERIAL.GUID:86a89ceb-4159-47f6-ab97-e9953803d70f
;EXTRUDER_TRAIN.1.NOZZLE.DIAMETER:0.4
;EXTRUDER_TRAIN.1.NOZZLE.NAME:BB 0.4
;BUILD_PLATE.TYPE:glass
;BUILD_PLATE.INITIAL_TEMPERATURE:60
;BUILD_VOLUME.TEMPERATURE:35
;PRINT.TIME:6465
;PRINT.GROUPS:1
;PRINT.SIZE.MIN.X:84.407
;PRINT.SIZE.MIN.Y:6
;PRINT.SIZE.MIN.Z:0.27
;PRINT.SIZE.MAX.X:204
;PRINT.SIZE.MAX.Y:124.9
;PRINT.SIZE.MAX.Z:34.67
;END_OF_HEADER
;Generated with Cura_SteamEngine 4.2.1
T1
M82 ;absolute extrusion mode

G92 E0
M109 S220
G0 F15000 X204 Y6 Z2
G280
G1 F1500 E-4.5
;LAYER_COUNT:348
;LAYER:0
M107
M204 S625
M205 X6 Y6
G0 F8571.4 X115.021 Y91.049 Z0.27
M204 S500
M205 X5 Y5
;TYPE:SKIRT
G1 F900 E0
G1 F1200 X115.342 Y91.434 E0.00891
G1 X115.598 Y91.866 E0.01784
G1 X115.781 Y92.333 E0.02675
G1 X115.889 Y92.822 E0.03565
G1 X115.918 Y93.25 E0.04328
G1 X115.918 Y102.25 E0.20326
G1 X115.878 Y102.75 E0.21218
G1 X115.759 Y103.237 E0.22109
G1 X115.565 Y103.7 E0.23002
G1 X115.531 Y103.754 E0.23115
G1 X115.598 Y103.866 E0.23347
G1 X115.781 Y104.333 E0.24239
G1 X115.889 Y104.822 E0.25129
G1 X115.918 Y105.25 E0.25891
G1 X115.918 Y114.25 E0.4189
G1 X115.878 Y114.75 E0.42781
G1 X115.759 Y115.237 E0.43673
G1 X115.565 Y115.7 E0.44565
G1 X115.299 Y116.125 E0.45456
G1 X114.969 Y116.503 E0.46348
G1 X114.584 Y116.824 E0.47239
G1 X114.152 Y117.08 E0.48132
G1 X113.685 Y117.263 E0.49023
G1 X113.196 Y117.371 E0.49914
G1 X112.768 Y117.4 E0.50676
G1 X108.418 Y117.4 E0.58409
G1 X108.418 Y121.75 E0.66141
G1 X108.378 Y122.25 E0.67033
G1 X108.259 Y122.737 E0.67924
G1 X108.065 Y123.2 E0.68816
G1 X107.799 Y123.625 E0.69708
G1 X107.469 Y124.003 E0.706
G1 X107.084 Y124.324 E0.71491
G1 X106.652 Y124.58 E0.72383
G1 X106.185 Y124.763 E0.73275
G1 X105.696 Y124.871 E0.74165
G1 X105.268 Y124.9 E0.74928
G1 X95.597 Y124.9 E0.92119
G1 X95.097 Y124.86 E0.9301
G1 X94.61 Y124.741 E0.93902
G1 X94.147 Y124.547 E0.94794
G1 X93.722 Y124.281 E0.95685
G1 X93.344 Y123.951 E0.96577
G1 X93.023 Y123.566 E0.97468
G1 X92.767 Y123.134 E0.98361
G1 X92.584 Y122.667 E0.99252
G1 X92.476 Y122.178 E1.00143
G1 X92.447 Y121.751 E1.00903
G1 X92.446 Y117.374 E1.08684
G1 X92.268 Y117.36 E1.09001
G1 X91.781 Y117.241 E1.09892
G1 X91.318 Y117.047 E1.10785
G1 X90.893 Y116.781 E1.11676
G1 X90.515 Y116.451 E1.12568
G1 X90.194 Y116.066 E1.13459
G1 X89.938 Y115.634 E1.14352
G1 X89.755 Y115.167 E1.15243
G1 X89.647 Y114.678 E1.16134
G1 X89.618 Y114.25 E1.16896
G1 X89.618 Y105.25 E1.32894
G1 X89.658 Y104.75 E1.33786
G1 X89.777 Y104.263 E1.34677
G1 X89.971 Y103.8 E1.3557
G1 X90.005 Y103.746 E1.35683
G1 X89.938 Y103.634 E1.35915
G1 X89.755 Y103.167 E1.36807
G1 X89.647 Y102.678 E1.37697
G1 X89.618 Y102.25 E1.38459
G1 X89.618 Y93.25 E1.54458
G1 X89.658 Y92.75 E1.55349
G1 X89.777 Y92.263 E1.56241
G1 X89.971 Y91.8 E1.57133
G1 X90.237 Y91.375 E1.58024
G1 X90.567 Y90.997 E1.58916
G1 X90.952 Y90.676 E1.59807
G1 X91.384 Y90.42 E1.607
G1 X91.851 Y90.237 E1.61591
G1 X92.34 Y90.129 E1.62482
G1 X92.768 Y90.1 E1.63244
G1 X100.768 Y90.1 E1.77465
G1 X101.268 Y90.14 E1.78357
G1 X101.755 Y90.259 E1.79248
G1 X102.218 Y90.453 E1.8014
G1 X102.643 Y90.719 E1.81031
G1 X102.769 Y90.829 E1.81329
G1 X102.952 Y90.676 E1.81753
G1 X103.384 Y90.42 E1.82645
G1 X103.851 Y90.237 E1.83537
G1 X104.34 Y90.129 E1.84427
G1 X104.768 Y90.1 E1.8519
G1 X112.768 Y90.1 E1.9941
G1 X113.268 Y90.14 E2.00302
G1 X113.755 Y90.259 E2.01193
G1 X114.218 Y90.453 E2.02086
G1 X114.643 Y90.719 E2.02977
G1 X115.021 Y91.049 E2.03869
M204 S625
M205 X6 Y6
G0 F8571.4 X114.83 Y91.461
M204 S500
M205 X5 Y5
G1 F1200 X115.105 Y91.839 E2.047
G1 X115.311 Y92.257 E2.05528
G1 X115.443 Y92.705 E2.06358
G1 X115.498 Y93.25 E2.07332
G1 X115.498 Y102.25 E2.2333
G1 X115.458 Y102.715 E2.2416
G1 X115.339 Y103.167 E2.24991
G1 X115.146 Y103.592 E2.25821
G1 X115.039 Y103.748 E2.26157
G1 X115.105 Y103.839 E2.26357
G1 X115.311 Y104.257 E2.27185
G1 X115.443 Y104.705 E2.28015
G1 X115.498 Y105.25 E2.28989
G1 X115.498 Y114.25 E2.44987
G1 X115.458 Y114.715 E2.45817
G1 X115.339 Y115.167 E2.46648
G1 X115.146 Y115.592 E2.47478
G1 X114.882 Y115.977 E2.48307
G1 X114.557 Y116.312 E2.49137
G1 X114.179 Y116.587 E2.49968
G1 X113.761 Y116.793 E2.50796
G1 X113.313 Y116.925 E2.51627
G1 X112.768 Y116.98 E2.526
G1 X107.998 Y116.98 E2.61079
G1 X107.998 Y121.75 E2.69559
G1 X107.958 Y122.215 E2.70388
G1 X107.839 Y122.667 E2.71219
G1 X107.646 Y123.092 E2.72049
G1 X107.382 Y123.477 E2.72879
G1 X107.057 Y123.812 E2.73708
G1 X106.679 Y124.087 E2.74539
G1 X106.261 Y124.293 E2.75368
G1 X105.813 Y124.425 E2.76198
G1 X105.268 Y124.48 E2.77172
G1 X95.597 Y124.48 E2.94363
G1 X95.132 Y124.44 E2.95192
G1 X94.68 Y124.321 E2.96023
G1 X94.255 Y124.128 E2.96853
G1 X93.87 Y123.864 E2.97683
G1 X93.535 Y123.539 E2.98512
G1 X93.26 Y123.161 E2.99343
G1 X93.054 Y122.743 E3.00172
G1 X92.922 Y122.295 E3.01002
G1 X92.867 Y121.751 E3.01974
G1 X92.866 Y116.98 E3.10455
G1 X92.768 Y116.98 E3.10629
G1 X92.303 Y116.94 E3.11459
G1 X91.851 Y116.821 E3.12289
G1 X91.426 Y116.628 E3.13119
G1 X91.041 Y116.364 E3.13949
G1 X90.706 Y116.039 E3.14779
G1 X90.431 Y115.661 E3.1561
G1 X90.225 Y115.243 E3.16438
G1 X90.093 Y114.795 E3.17268
G1 X90.038 Y114.25 E3.18242
G1 X90.038 Y105.25 E3.3424
G1 X90.078 Y104.785 E3.3507
G1 X90.197 Y104.333 E3.35901
G1 X90.39 Y103.908 E3.36731
G1 X90.497 Y103.752 E3.37067
G1 X90.431 Y103.661 E3.37267
G1 X90.225 Y103.243 E3.38095
G1 X90.093 Y102.795 E3.38925
G1 X90.038 Y102.25 E3.39899
G1 X90.038 Y93.25 E3.55897
G1 X90.078 Y92.785 E3.56727
G1 X90.197 Y92.333 E3.57558
G1 X90.39 Y91.908 E3.58388
G1 X90.654 Y91.523 E3.59217
G1 X90.979 Y91.188 E3.60047
G1 X91.357 Y90.913 E3.60878
G1 X91.775 Y90.707 E3.61706
G1 X92.223 Y90.575 E3.62537
G1 X92.768 Y90.52 E3.6351
G1 X100.768 Y90.52 E3.77731
G1 X101.233 Y90.56 E3.78561
G1 X101.685 Y90.679 E3.79392
G1 X102.11 Y90.872 E3.80221
G1 X102.495 Y91.136 E3.81051
G1 X102.77 Y91.403 E3.81732
G1 X102.979 Y91.188 E3.82265
G1 X103.357 Y90.913 E3.83096
G1 X103.775 Y90.707 E3.83925
G1 X104.223 Y90.575 E3.84755
G1 X104.768 Y90.52 E3.85729
G1 X112.768 Y90.52 E3.99949
G1 X113.233 Y90.56 E4.00779
G1 X113.685 Y90.679 E4.0161
G1 X114.11 Y90.872 E4.0244
G1 X114.495 Y91.136 E4.03269
G1 X114.83 Y91.461 E4.04099
M204 S625
M205 X6 Y6
G0 F8571.4 X114.334 Y91.551
M204 S500
M205 X5 Y5
G1 F1200 X114.621 Y91.871 E4.04863
G1 X114.844 Y92.237 E4.05625
G1 X114.996 Y92.639 E4.06389
G1 X115.078 Y93.25 E4.07485
G1 X115.078 Y102.25 E4.23483
G1 X115.038 Y102.678 E4.24247
G1 X114.92 Y103.09 E4.25009
G1 X114.727 Y103.474 E4.25773
G1 X114.515 Y103.753 E4.26396
G1 X114.621 Y103.871 E4.26678
G1 X114.844 Y104.237 E4.2744
G1 X114.996 Y104.639 E4.28204
G1 X115.078 Y105.25 E4.293
G1 X115.078 Y114.25 E4.45298
G1 X115.038 Y114.678 E4.46062
G1 X114.92 Y115.09 E4.46824
G1 X114.727 Y115.474 E4.47588
G1 X114.467 Y115.816 E4.48352
G1 X114.147 Y116.103 E4.49116
G1 X113.781 Y116.326 E4.49878
G1 X113.379 Y116.478 E4.50642
G1 X112.768 Y116.56 E4.51737
G1 X107.578 Y116.56 E4.60963
G1 X107.578 Y121.75 E4.70189
G1 X107.538 Y122.178 E4.70953
G1 X107.42 Y122.59 E4.71715
G1 X107.227 Y122.974 E4.72479
G1 X106.967 Y123.316 E4.73242
G1 X106.647 Y123.603 E4.74007
G1 X106.281 Y123.826 E4.74768
G1 X105.879 Y123.978 E4.75532
G1 X105.268 Y124.06 E4.76628
G1 X95.597 Y124.06 E4.93819
G1 X95.169 Y124.02 E4.94584
G1 X94.757 Y123.902 E4.95345
G1 X94.373 Y123.709 E4.96109
G1 X94.031 Y123.449 E4.96873
G1 X93.744 Y123.129 E4.97637
G1 X93.521 Y122.763 E4.98399
G1 X93.369 Y122.361 E4.99163
G1 X93.287 Y121.75 E5.00259
G1 X93.286 Y116.75 E5.09147
G1 X93.304 Y116.56 E5.09486
G1 X92.768 Y116.56 E5.10439
G1 X92.34 Y116.52 E5.11203
G1 X91.928 Y116.402 E5.11965
G1 X91.544 Y116.209 E5.12729
G1 X91.202 Y115.949 E5.13492
G1 X90.915 Y115.629 E5.14256
G1 X90.692 Y115.263 E5.15018
G1 X90.54 Y114.861 E5.15782
G1 X90.458 Y114.25 E5.16878
G1 X90.458 Y105.25 E5.32877
G1 X90.498 Y104.822 E5.33641
G1 X90.616 Y104.41 E5.34402
G1 X90.809 Y104.026 E5.35166
G1 X91.021 Y103.747 E5.35789
G1 X90.915 Y103.629 E5.36071
G1 X90.692 Y103.263 E5.36833
G1 X90.54 Y102.861 E5.37597
G1 X90.458 Y102.25 E5.38693
G1 X90.458 Y93.25 E5.54691
G1 X90.498 Y92.822 E5.55455
G1 X90.616 Y92.41 E5.56217
G1 X90.809 Y92.026 E5.56981
G1 X91.069 Y91.684 E5.57745
G1 X91.389 Y91.397 E5.58509
G1 X91.755 Y91.174 E5.59271
G1 X92.157 Y91.022 E5.60035
G1 X92.768 Y90.94 E5.61131
G1 X100.768 Y90.94 E5.75351
G1 X101.196 Y90.98 E5.76116
G1 X101.608 Y91.098 E5.76877
G1 X101.992 Y91.291 E5.77641
G1 X102.334 Y91.551 E5.78405
G1 X102.621 Y91.871 E5.79169
G1 X102.767 Y92.11 E5.79667
G1 X102.809 Y92.026 E5.79834
G1 X103.069 Y91.684 E5.80598
G1 X103.389 Y91.397 E5.81362
G1 X103.755 Y91.174 E5.82124
G1 X104.157 Y91.022 E5.82887
G1 X104.768 Y90.94 E5.83983
G1 X112.768 Y90.94 E5.98204
G1 X113.196 Y90.98 E5.98968
G1 X113.608 Y91.098 E5.9973
G1 X113.992 Y91.291 E6.00494
G1 X114.334 Y91.551 E6.01258
M204 S625
M205 X6 Y6
G0 F8571.4 X114.154 Y91.965
M204 S500
M205 X5 Y5
G1 F1200 X114.387 Y92.276 E6.01948
G1 X114.552 Y92.627 E6.02638
G1 X114.642 Y93.005 E6.03329
G1 X114.658 Y93.25 E6.03765
G1 X114.658 Y102.25 E6.19763
G1 X114.618 Y102.636 E6.20453
G1 X114.5 Y103.006 E6.21144
G1 X114.309 Y103.344 E6.21834
G1 X114.053 Y103.636 E6.22524
G1 X113.905 Y103.747 E6.22853
G1 X114.154 Y103.965 E6.23441
G1 X114.387 Y104.276 E6.24132
G1 X114.552 Y104.627 E6.24821
G1 X114.642 Y105.005 E6.25512
G1 X114.658 Y105.25 E6.25949
G1 X114.658 Y114.25 E6.41947
G1 X114.618 Y114.636 E6.42637
G1 X114.5 Y115.006 E6.43327
G1 X114.309 Y115.344 E6.44017
G1 X114.053 Y115.636 E6.44708
G1 X113.742 Y115.869 E6.45398
G1 X113.391 Y116.034 E6.46088
G1 X113.013 Y116.124 E6.46778
G1 X112.768 Y116.14 E6.47215
G1 X107.158 Y116.14 E6.57187
G1 X107.158 Y121.75 E6.6716
G1 X107.118 Y122.136 E6.67849
G1 X107 Y122.506 E6.6854
G1 X106.809 Y122.844 E6.6923
G1 X106.553 Y123.136 E6.6992
G1 X106.242 Y123.369 E6.70611
G1 X105.891 Y123.534 E6.713
G1 X105.513 Y123.624 E6.71991
G1 X105.268 Y123.64 E6.72427
G1 X95.597 Y123.64 E6.89619
G1 X95.211 Y123.6 E6.90308
G1 X94.841 Y123.482 E6.90999
G1 X94.503 Y123.291 E6.91689
G1 X94.211 Y123.035 E6.92379
G1 X93.978 Y122.724 E6.9307
G1 X93.813 Y122.373 E6.93759
G1 X93.723 Y121.995 E6.9445
G1 X93.707 Y121.75 E6.94887
G1 X93.706 Y116.75 E7.03775
G1 X93.746 Y116.364 E7.04464
G1 X93.817 Y116.14 E7.04882
G1 X92.768 Y116.14 E7.06747
G1 X92.382 Y116.1 E7.07437
G1 X92.012 Y115.982 E7.08127
G1 X91.674 Y115.791 E7.08817
G1 X91.382 Y115.535 E7.09507
G1 X91.149 Y115.224 E7.10198
G1 X90.984 Y114.873 E7.10888
G1 X90.894 Y114.495 E7.11578
G1 X90.878 Y114.25 E7.12015
G1 X90.878 Y105.25 E7.28013
G1 X90.918 Y104.864 E7.28703
G1 X91.036 Y104.494 E7.29393
G1 X91.227 Y104.156 E7.30083
G1 X91.483 Y103.864 E7.30774
G1 X91.631 Y103.753 E7.31103
G1 X91.382 Y103.535 E7.31691
G1 X91.149 Y103.224 E7.32382
G1 X90.984 Y102.873 E7.33071
G1 X90.894 Y102.495 E7.33762
G1 X90.878 Y102.25 E7.34198
G1 X90.878 Y93.25 E7.50197
G1 X90.918 Y92.864 E7.50886
G1 X91.036 Y92.494 E7.51577
G1 X91.227 Y92.156 E7.52267
G1 X91.483 Y91.864 E7.52957
G1 X91.794 Y91.631 E7.53648
G1 X92.145 Y91.466 E7.54337
G1 X92.523 Y91.376 E7.55028
G1 X92.768 Y91.36 E7.55465
G1 X100.768 Y91.36 E7.69685
G1 X101.154 Y91.4 E7.70375
G1 X101.524 Y91.518 E7.71066
G1 X101.862 Y91.709 E7.71756
G1 X102.154 Y91.965 E7.72446
G1 X102.387 Y92.276 E7.73137
G1 X102.552 Y92.627 E7.73826
G1 X102.642 Y93.005 E7.74517
G1 X102.658 Y93.25 E7.74953
G1 X102.658 Y102.25 E7.90952
G1 X102.618 Y102.636 E7.91642
G1 X102.5 Y103.006 E7.92332
G1 X102.309 Y103.344 E7.93022
G1 X102.053 Y103.636 E7.93712
G1 X101.905 Y103.747 E7.94041
G1 X102.154 Y103.965 E7.94629
G1 X102.387 Y104.276 E7.9532
G1 X102.552 Y104.627 E7.9601
G1 X102.642 Y105.005 E7.967
G1 X102.658 Y105.25 E7.97137
G1 X102.658 Y108.36 E8.02665
G1 X102.878 Y108.36 E8.03056
G1 X102.878 Y105.25 E8.08585
G1 X102.918 Y104.864 E8.09274
G1 X103.036 Y104.494 E8.09965
G1 X103.227 Y104.156 E8.10655
G1 X103.483 Y103.864 E8.11345
G1 X103.631 Y103.753 E8.11674
G1 X103.382 Y103.535 E8.12262
G1 X103.149 Y103.224 E8.12953
G1 X102.984 Y102.873 E8.13642
G1 X102.894 Y102.495 E8.14333
G1 X102.878 Y102.25 E8.1477
G1 X102.878 Y93.25 E8.30768
G1 X102.918 Y92.864 E8.31458
G1 X103.036 Y92.494 E8.32148
G1 X103.227 Y92.156 E8.32838
G1 X103.483 Y91.864 E8.33529
G1 X103.794 Y91.631 E8.34219
G1 X104.145 Y91.466 E8.34909
G1 X104.523 Y91.376 E8.356
G1 X104.768 Y91.36 E8.36036
G1 X112.768 Y91.36 E8.50257
G1 X113.154 Y91.4 E8.50947
G1 X113.524 Y91.518 E8.51637
G1 X113.862 Y91.709 E8.52327
G1 X114.154 Y91.965 E8.53017
M204 S625
M205 X6 Y6
G0 F8571.4 X113.715 Y92.126
M204 S500
M205 X5 Y5
G1 F1200 X113.95 Y92.376 E8.53627
G1 X114.12 Y92.673 E8.54236
G1 X114.217 Y93.001 E8.54844
G1 X114.238 Y93.25 E8.55288
G1 X114.238 Y102.25 E8.71286
G1 X114.198 Y102.59 E8.71895
G1 X114.081 Y102.912 E8.72504
G1 X113.892 Y103.197 E8.73112
G1 X113.642 Y103.432 E8.73722
G1 X113.345 Y103.602 E8.7433
G1 X113.017 Y103.699 E8.74938
G1 X112.768 Y103.72 E8.75382
G1 X104.768 Y103.72 E8.89603
G1 X104.428 Y103.68 E8.90211
G1 X104.106 Y103.563 E8.9082
G1 X103.821 Y103.374 E8.91428
G1 X103.586 Y103.124 E8.92038
G1 X103.416 Y102.827 E8.92646
G1 X103.319 Y102.499 E8.93254
G1 X103.298 Y102.25 E8.93699
G1 X103.298 Y93.25 E9.09697
G1 X103.338 Y92.91 E9.10306
G1 X103.455 Y92.588 E9.10915
G1 X103.644 Y92.303 E9.11523
G1 X103.894 Y92.068 E9.12132
G1 X104.191 Y91.898 E9.12741
G1 X104.519 Y91.801 E9.13349
G1 X104.768 Y91.78 E9.13793
G1 X112.768 Y91.78 E9.28014
G1 X113.108 Y91.82 E9.28622
G1 X113.43 Y91.937 E9.29231
G1 X113.715 Y92.126 E9.29839
M204 S625
M205 X6 Y6
G0 F8571.4 X113.542 Y92.54
M204 S500
M205 X5 Y5
G1 F1200 X113.706 Y92.778 E9.30353
G1 X113.799 Y93.052 E9.30867
G1 X113.818 Y93.25 E9.31221
G1 X113.818 Y102.25 E9.47219
G1 X113.778 Y102.536 E9.47733
G1 X113.662 Y102.801 E9.48247
G1 X113.478 Y103.024 E9.48761
G1 X113.24 Y103.188 E9.49275
G1 X112.966 Y103.281 E9.49789
G1 X112.768 Y103.3 E9.50142
G1 X104.768 Y103.3 E9.64363
G1 X104.482 Y103.26 E9.64877
G1 X104.217 Y103.144 E9.65391
G1 X103.994 Y102.96 E9.65905
G1 X103.83 Y102.722 E9.66419
G1 X103.737 Y102.448 E9.66933
G1 X103.718 Y102.25 E9.67286
G1 X103.718 Y93.25 E9.83285
G1 X103.758 Y92.964 E9.83798
G1 X103.874 Y92.699 E9.84312
G1 X104.058 Y92.476 E9.84826
G1 X104.296 Y92.312 E9.8534
G1 X104.57 Y92.219 E9.85854
G1 X104.768 Y92.2 E9.86208
G1 X112.768 Y92.2 E10.00429
G1 X113.054 Y92.24 E10.00942
G1 X113.319 Y92.356 E10.01456
G1 X113.542 Y92.54 E10.0197
M204 S625
M205 X6 Y6
G0 F8571.4 X113.18 Y92.774
M204 S500
M205 X5 Y5
G1 F1200 X113.321 Y92.948 E10.02368
G1 X113.398 Y93.25 E10.02922
G1 X113.398 Y102.25 E10.18921
G1 X113.358 Y102.47 E10.19318
G1 X113.244 Y102.662 E10.19715
G1 X113.07 Y102.803 E10.20113
G1 X112.768 Y102.88 E10.20667
G1 X104.768 Y102.88 E10.34888
G1 X104.548 Y102.84 E10.35286
G1 X104.356 Y102.726 E10.35682
G1 X104.215 Y102.552 E10.36081
G1 X104.138 Y102.25 E10.36635
G1 X104.138 Y93.25 E10.52633
G1 X104.178 Y93.03 E10.5303
G1 X104.292 Y92.838 E10.53427
G1 X104.466 Y92.697 E10.53826
G1 X104.768 Y92.62 E10.5438
G1 X112.768 Y92.62 E10.686
G1 X112.988 Y92.66 E10.68998
G1 X113.18 Y92.774 E10.69395
M204 S625
M205 X6 Y6
G0 F8571.4 X112.89 Y93.079
M204 S500
M205 X5 Y5
G1 F1200 X112.967 Y93.182 E10.69623
G1 X112.978 Y93.25 E10.69746
G1 X112.978 Y102.25 E10.85744
G1 X112.939 Y102.372 E10.85972
G1 X112.836 Y102.449 E10.862
G1 X112.768 Y102.46 E10.86323
G1 X104.768 Y102.46 E11.00544
G1 X104.646 Y102.421 E11.00771
G1 X104.569 Y102.318 E11.01
G1 X104.558 Y102.25 E11.01122
G1 X104.558 Y93.25 E11.17121
G1 X104.597 Y93.128 E11.17348
G1 X104.7 Y93.051 E11.17577
G1 X104.768 Y93.04 E11.17699
G1 X112.768 Y93.04 E11.3192
G1 X112.89 Y93.079 E11.32148
M204 S625
M205 X6 Y6
G1 F1500 E6.82148
G0 F8571.4 X112.89 Y92.46
G0 X103.99 Y92.472
G0 X102.217 Y93.001
M204 S500
M205 X5 Y5
G1 F900 E11.32148
G1 F1200 X102.238 Y93.25 E11.32592
G1 X102.238 Y102.25 E11.4859
G1 X102.198 Y102.59 E11.49199
G1 X102.081 Y102.912 E11.49808
G1 X101.892 Y103.197 E11.50416
